X:1
T:Title
%%score { ( 1 3 ) | ( 2 4 ) }
L:1/8
Q:1/4=100
M:4/4
K:G
V:1 treble nm="Grand Piano"
V:3 treble 
V:2 bass 
V:4 bass 
V:1
 [DB]2 [DA]2 [Ec]2 [DB][DB] | A4 z4 | [DB]2 [DB][DB] [^DB]3 [EB] | [Ec]2 [Ec]2 [Gd]2 [Ge]2 | %4
w: August~Neithardt * * * *||||
 [Fd]4 z4 | B2 [DGB]2 [CGc]2 [DGB]2 | [EGA]4 [DFA]2 [DFA]2 | [DGd]3 [CEG] .[CEc]2 [DGB]2 | %8
w: ||||
 [DFA]4 [DFA]4 | [DGB]2 [DGB][DGB] [EG]2 [EG]2 | [CEc]4 [DFA]4 | [B,EG]4 [DFA]4 | [DGB]8 |] %13
w: |||||
V:2
 [G,,G,]2 [D,F,]2 [C,G,]2 [G,,G,][G,,G,] | [D,D]4 z4 | [G,,G,]2 [G,,G,][G,,G,] [B,,F,]3 [E,G,] | %3
 [A,,A,]2 [A,,A,]2 [G,,B,]2 [C,C]2 | D,4[K:treble] [G,DG]2 [G,DG][G,DG] | %5
 [G,DG]2[K:bass] =F,2 E,2 D,2 | ^C,4 D,2 =C,2 | B,,3 C, z FB,,C, | D,4 D,4 | G,2 G,G, C2 C2 | %10
 A,4 D,4 | E,4 D,4 | G,,8 |] %13
V:3
 x8 | z2 F,2 [DB]4 | x8 | x8 | z2 D2 B2 BB | x8 | x8 | x8 | x8 | x8 | x8 | x8 | x8 |] %13
V:4
 x8 | G,2 z2 [G,,G,]4 | x8 | x8 | A,2 z2[K:treble] z4 | x2[K:bass] x6 | x8 | z4 A,,2 z2 | x8 | x8 | %10
 x8 | x8 | x8 |] %13

